assets/Kiss mark/Flat/kiss_mark_flat.svg

<svg width="32" height="32" viewBox="0 0 32 32" fill="none" xmlns="http://www.w3.org/2000/svg">
<path d="M20.3021 2.44212L28.0121 4.16212C28.3609 4.23869 28.5849 4.48355 28.6694 4.76815C28.6905 4.79926 28.7083 4.83394 28.7221 4.87212L28.8921 5.38212C30.8721 11.3221 30.0721 20.0621 25.6521 24.4921L24.5021 25.6421C20.0821 30.0621 11.3321 30.8621 5.40207 28.8721L4.89207 28.7021C4.86615 28.6935 4.8419 28.6829 4.81932 28.6706C4.5174 28.5961 4.25236 28.3677 4.17212 28.0021L2.47212 20.3821C2.25212 19.7521 2.02212 18.1921 2.02212 18.1921C1.85212 15.8521 2.66212 13.4521 4.45212 11.6621C5.80212 10.3021 7.51212 9.51212 9.27212 9.27212C9.51212 7.51212 10.3021 5.80212 11.6621 4.45212C13.4521 2.66212 15.8621 1.85212 18.2021 2.02212C18.2021 2.02212 19.7321 2.25212 20.3021 2.44212ZM6.39599 27.0587L8.72207 25.8121C15.9921 21.9221 21.9421 15.9721 25.8321 8.70212L27.0749 6.38289L21.6621 9.05212C16.1921 11.7521 11.7621 16.1821 9.06212 21.6521L6.39599 27.0587Z" fill="#F92F60"/>
</svg>

<svg xmlns="http://www.w3.org/2000/svg" width="32" height="32" fill="none"><path fill="#F92F60" d="m20.302 2.442 7.71 1.72a.863.863 0 0 1 .657.606.468.468 0 0 1 .053.104l.17.51c1.98 5.94 1.18 14.68-3.24 19.11l-1.15 1.15c-4.42 4.42-13.17 5.22-19.1 3.23l-.51-.17a.444.444 0 0 1-.073-.031.864.864 0 0 1-.647-.669l-1.7-7.62c-.22-.63-.45-2.19-.45-2.19-.17-2.34.64-4.74 2.43-6.53a8.358 8.358 0 0 1 4.82-2.39 8.358 8.358 0 0 1 2.39-4.82c1.79-1.79 4.2-2.6 6.54-2.43 0 0 1.53.23 2.1.42ZM6.396 27.06l2.326-1.247a41.726 41.726 0 0 0 17.11-17.11l1.243-2.32-5.413 2.67c-5.47 2.7-9.9 7.13-12.6 12.6L6.396 27.06Z"/></svg>
